X:1
T:Calling the Prodigal
T:Calling the Prodigal
T:Charles Hutchinson Gabriel
T:Charles Hutchinson Gabriel, 1889
T:Public Domain Courtesy of the Cyber Hymnal™
T:Public Domain Courtesy of the Cyber Hymnal™
C:Charles Hutchinson Gabriel
Z:Public Domain
Z:Courtesy of the Cyber Hymnal™
%%score ( 1 2 ) ( 3 4 )
L:1/8
Q:1/4=113
M:12/8
K:Bb
V:1 treble 
V:2 treble 
V:3 bass 
V:4 bass 
V:1
 [DF]3 [DF]3 [DF][B,D][CE] [DF][EG][EA] | [DB]2 [DF] [FB]2 [Fc] [Fd]6 | %2
w: 1.~God is call- ing the prod- i- gal,|come with- out de- lay,|
w: 2.~Pa- tient, lov- ing and ten- der- ly|still the Fa- ther pleads,|
w: 3.~Come, there’s bread in the house of the|Fa- ther, and to spare,|
 [Fd]2 [Ec] [Ec]2 [D=B] [Ec]3 [EF]3 | [Ec]2 [DB] ([DB][FA])[EG] [DF]6 | %4
w: Hear, O hear Him call- ing,|call- ing now * for thee.|
w: Hear, O hear Him call- ing,|call- ing now * for thee;|
w: Hear, O hear Him call- ing,|call- ing now * for thee;|
 [DF]3 [DF]3 [DF][B,D][CE] [DF][EG][EA] | [DB]2 [DF] [FB]2 [Fc] [Fd]6 | %6
w: Tho’ you’ve wan- dered so far from His|pre- sence, come to- day,|
w: Oh! re- turn while the Spir- it in|mer- cy in- ter- cedes,|
w: Lo! the ta- ble is spread and the|feast is wait- ing there,|
 [Fd]2 [Ec] [EB]2 [D=B] [Ec]3 [EF]2 [Ec] | B6- [DB]3 z3 ||"^Refrain" [Fd]8 [Ec] ([DB][FA])[EG] | %9
w: Hear His lov- ing voice call- ing|still. Call-|* ing now * for|
w: Hear His lov- ing voice call- ing|still. *||
w: Hear His lov- ing voice call- ing|still. *||
 [DF]6- [DF]3 [DB]3 | A6- A2 G EFG | F6- [DF]3 z3 | [Fd]8 [Ec] ([DB][Ec])[_Ad] | %13
w: thee, * O|wear- * y prod- i- gal,|come; Call-|* ing now * for|
w: ||||
w: ||||
 [Ge]6- [Ge]3 [EG]3 | F6- F2 F ABc | B6- [DB]3 z3 |] %16
w: thee, * O|wear- * y prod- i- gal,|come. *|
w: |||
w: |||
V:2
 x12 | x12 | x12 | x12 | x12 | x12 | x12 | D3 GFE x6 || x12 | x12 | (E2 EEEE E3) x3 | D2 DDDD x6 | %12
 x12 | x12 | (D2 DDDD E3) x3 | D2 DGFE x6 |] %16
V:3
 [B,,B,]3 [B,,B,]3 [B,,F,][B,,F,][B,,F,] [B,,B,][B,,B,][B,,B,] | %1
w: ~ ~ ~ ~ ~ ~ ~ ~|
 [B,,B,]2 [B,,B,] [D,B,]2 [F,A,] [B,,B,]6 | [F,A,]2 [F,A,] [F,A,]2 [F,A,] [F,A,]3 [F,A,]3 | %3
w: ~ ~ ~ ~ ~|~ ~ ~ ~ ~ ~|
 [B,,F,]2 [B,,F,] [B,,B,]2 [B,,B,] ([B,,B,]2 [B,,B,] [B,,B,]3) | %4
w: ~ ~ ~ ~ ~ * *|
 [B,,B,]3 [B,,B,]3 [B,,F,][B,,F,][B,,F,] [B,,B,][B,,B,][B,,B,] | %5
w: ~ ~ ~ ~ ~ ~ ~ ~|
 [B,,B,]2 [B,,B,] [D,B,]2 [F,A,] [B,,B,]6 | [F,A,]2 [F,A,] [F,A,]2 [F,A,] [F,A,]3 [F,A,]2 [F,A,] | %7
w: ~ ~ ~ ~ ~|~ ~ ~ ~ ~ ~ ~|
 ([B,,B,]3 B,A,[B,,G,] [B,,F,]3) z3 || [B,,B,]2 [B,,B,] [B,,B,]2 [B,,B,] [B,,B,]3 z3 | %9
w: ~ * * * *|Call- ing now for thee,|
 [B,,B,]2 [B,,B,] [B,,B,]2 [B,,B,] [B,,B,]3 z3 | [F,C]2 [F,C] [F,C][F,C][F,C] [F,C]3 z3 | %11
w: Call- ing now for thee,|Wear- y prod- i- gal, come,|
 [B,,B,]2 [B,,B,] [B,,B,][B,,B,][B,,B,] [B,,B,]3 z3 | %12
w: wear- y prod- i- gal, come;|
 [B,,B,]2 [B,,B,] [B,,B,]2 [B,,B,] [B,,B,]3 z3 | [E,B,]2 [E,B,] [E,B,]2 [E,B,] [E,B,]3 z3 | %14
w: Call- ing now for thee,|Call- ing now for thee,|
 [F,B,]2 [F,B,] [F,B,][F,B,][F,B,] [F,A,]3 z3 | %15
w: Wear- y prod- i- gal, come,|
 [B,,F,]2 [B,,F,] [B,,B,][B,,A,][B,,G,] [B,,F,]3 z3 |] %16
w: wear- y prod- i- gal, come.|
V:4
 x12 | x12 | x12 | x12 | x12 | x12 | x12 | x3 B,,2 x7 || x12 | x12 | x12 | x12 | x12 | x12 | x12 | %15
 x12 |] %16

